X:138
T:Polonäs
T:ur Johan Erik Carlssons notbok (nr 138)
B:Johan Erik Carlssons notbok, nr 138
B:http://www.smus.se/earkiv/fmk/browselarge.php?lang=sw&katalogid=MMD+67&bildnr=00050
O:Snavlunda, Närke / Bona, Östergötland
R:Slängpolska
Z:Nils Liberg
M:3/4
L:1/8
K:D
d2 Ac de | f2 ed e2 | Aa ^ga fd | df ec A2 |
d2 Ac de | f2 ed e2 | Aa ^ga fd | ec d4 ::
a>g e>f d>f | e>c A2 A2 | Ac de fa | g>f de/f/ e2 |
a>g e>f df | ec A2 A2 | Ac de fd | e>c d4 :|

